X:711
T:Mrs. MacDonald of Clanranald
R:Reel
B:The Athole Collection
M:C|
L:1/8
K:E Minor
B,|E2 EB GEB^c|d2 Ad FDAF|~E2 EB GEB^c|dBAF BEE:|
|:f|geBA GFEg|fdAG FEDf|1 geBA GFEg|fdaf gee:|2 gebg faef|
dBAF BEE||

